assets/icons/24px/stroke/chevron-double-down-24px.svg

<svg width="24" height="24" viewBox="0 0 24 24" fill="none" xmlns="http://www.w3.org/2000/svg">
<path fill-rule="evenodd" clip-rule="evenodd" d="M12.6183 17.8766C12.9893 17.5935 13.4347 17.1512 14.1213 16.4645L19.2929 11.293C19.6834 10.9024 20.3166 10.9024 20.7071 11.293C21.0976 11.6835 21.0976 12.3166 20.7071 12.7072L15.5355 17.8787C15.52 17.8943 15.5044 17.9098 15.489 17.9253C14.8622 18.5522 14.3221 19.0923 13.8315 19.4667C13.3056 19.8679 12.7208 20.1716 12 20.1716C11.2792 20.1716 10.6944 19.8679 10.1685 19.4667C9.67789 19.0923 9.13781 18.5522 8.51101 17.9253L3.29289 12.7072C2.90237 12.3166 2.90237 11.6835 3.29289 11.293C3.68342 10.9024 4.31658 10.9024 4.70711 11.293L9.87868 16.4645C10.5653 17.1512 11.0107 17.5935 11.3817 17.8766C11.7296 18.1421 11.8923 18.1716 12 18.1716C12.1077 18.1716 12.2704 18.1421 12.6183 17.8766Z" fill="white"/>
<path fill-rule="evenodd" clip-rule="evenodd" d="M12.6183 9.87661C12.9893 9.59354 13.4347 9.15118 14.1213 8.46453L19.2929 3.29295C19.6834 2.90243 20.3166 2.90243 20.7071 3.29295C21.0976 3.68348 21.0976 4.31664 20.7071 4.70716L15.5355 9.87874C15.52 9.89431 15.5044 9.90983 15.489 9.9253C14.8622 10.5522 14.3221 11.0923 13.8315 11.4667C13.3056 11.8679 12.7208 12.1716 12 12.1716C11.2792 12.1716 10.6944 11.8679 10.1685 11.4667C9.67789 11.0923 9.13781 10.5522 8.51101 9.92528L3.29289 4.70716C2.90237 4.31664 2.90237 3.68348 3.29289 3.29295C3.68342 2.90243 4.31658 2.90243 4.70711 3.29295L9.87868 8.46453C10.5653 9.15118 11.0107 9.59354 11.3817 9.87661C11.7296 10.1421 11.8923 10.1716 12 10.1716C12.1077 10.1716 12.2704 10.1421 12.6183 9.87661Z" fill="white"/>
</svg>

<svg width="24" height="24" fill="none" xmlns="http://www.w3.org/2000/svg"><path fill-rule="evenodd" clip-rule="evenodd" d="M12.618 17.877c.371-.284.817-.726 1.503-1.412l5.172-5.172a1 1 0 1 1 1.414 1.414l-5.171 5.172-.047.046c-.627.627-1.167 1.167-1.658 1.542-.525.4-1.11.705-1.831.705-.72 0-1.306-.304-1.832-.705-.49-.375-1.03-.915-1.657-1.542l-5.218-5.218a1 1 0 1 1 1.414-1.414l5.172 5.172c.686.686 1.132 1.128 1.503 1.412.348.265.51.295.618.295.108 0 .27-.03.618-.295z" fill="#fff"/><path fill-rule="evenodd" clip-rule="evenodd" d="M12.618 9.877c.371-.283.817-.726 1.503-1.412l5.172-5.172a1 1 0 1 1 1.414 1.414L15.536 9.88l-.047.046c-.627.627-1.167 1.167-1.658 1.542-.525.4-1.11.705-1.831.705-.72 0-1.306-.304-1.832-.705-.49-.375-1.03-.915-1.657-1.542L3.293 4.707a1 1 0 0 1 1.414-1.414L9.88 8.465c.686.686 1.132 1.129 1.503 1.412.348.265.51.295.618.295.108 0 .27-.03.618-.295z" fill="#fff"/></svg>
